X: 1
T:God Bless America
M:C|
L:1/8
Q:80
C:
S:Air
K:HP
{Gdc}d2{gcd}c{e}B|
{gcd}cB/4{G}A3/4-A2|
{gef}e2{Gdc}de|  !
{g}f{GdG}f{g}e3/2f/2|
{gf}gB-B{gf}g|
{fg}f{AGAG}A-A{Gdc}d3/4e/4|  !
{g}f{gef}e3/4d/4{gef}e{Gdc}d3/4c/4|
{Gdc}d2{gdc}d{g}c3/4d/4|
{gef}e{AGAG}A-A{Gdc}d3/4e/4|  !
{fg}f{AGAG}A-Ae3/4f/4|
{gf}g{gcd}c-cf3/4g/4|
{ag}a2{GdG}a2|  !
{gBd}B2{g}A{e}G|
{gfg}fe/4{Gdc}d3/4-d{gf}g|
{fg}f2{gef}e2|  !
{ag}a2{GdG}a2|
{gBd}B2{g}A{e}G|
{gfg}fe/4{Gdc}d3/4-d{gf}g|  !
{fg}f2{gef}e2|
{Gdc}d2{gdc}d2|]
